packages/ffe-icons/icons/open/300/sm/temple_hindu.svg

<svg xmlns="http://www.w3.org/2000/svg" height="20" viewBox="0 -960 960 960" width="20"><path d="M106.001-169.999V-492q0-11.05 7.418-18.524 7.418-7.475 18.384-7.475 10.966 0 18.581 7.475 7.615 7.474 7.615 18.524v70.001h89.309l146.693-392.462V-876q0-11.05 7.418-18.524 7.418-7.475 18.384-7.475 10.966 0 18.581 7.475 7.615 7.474 7.615 18.524v70.001h68.002V-876q0-11.05 7.418-18.524 7.418-7.475 18.384-7.475 10.966 0 18.581 7.475 7.615 7.474 7.615 18.524v61.539l146.693 392.462h89.309V-492q0-11.05 7.418-18.524 7.418-7.475 18.384-7.475 10.966 0 18.581 7.475 7.615 7.474 7.615 18.524v322.001q0 26.188-18.905 45.093-18.905 18.905-45.093 18.905H570.154q-13.665 0-22.909-9.244t-9.244-22.909v-159.847H421.999v159.847q0 13.665-9.244 22.909t-22.909 9.244H169.999q-26.188 0-45.093-18.905-18.905-18.905-18.905-45.093Zm224.536-324h298.926l-42.155-116.002H372.692l-42.155 116.002Zm63-168h172.926l-33.155-92.002H426.692l-33.155 92.002Zm-235.538 504h212.002v-128.002q0-26.188 18.905-45.093 18.905-18.905 45.093-18.905h92.002q26.188 0 45.093 18.905 18.905 18.905 18.905 45.093v128.002h212.002v-212.002h-81.694q-19.506 0-35.636-11.13-16.13-11.13-23.132-29.638l-11.538-28.924-340.309-2.308-11.231 31.232q-7.002 18.508-23.132 29.638-16.13 11.13-35.636 11.13h-81.694v212.002ZM480-439.693Z"/></svg>

<svg xmlns="http://www.w3.org/2000/svg" height="20" viewBox="0 -960 960 960" width="20"><path d="M106-170v-322q0-11.05 7.42-18.52 7.42-7.48 18.38-7.48 10.97 0 18.58 7.48Q158-503.05 158-492v70h89.31L394-814.46V-876q0-11.05 7.42-18.52 7.42-7.48 18.38-7.48 10.97 0 18.58 7.48Q446-887.05 446-876v70h68v-70q0-11.05 7.42-18.52 7.42-7.48 18.38-7.48 10.97 0 18.58 7.48Q566-887.05 566-876v61.54L712.69-422H802v-70q0-11.05 7.42-18.52 7.42-7.48 18.38-7.48 10.97 0 18.58 7.48Q854-503.05 854-492v322q0 26.19-18.91 45.09Q816.19-106 790-106H570.15q-13.66 0-22.91-9.24-9.24-9.25-9.24-22.91V-298H422v159.85q0 13.66-9.24 22.91-9.25 9.24-22.91 9.24H170q-26.19 0-45.09-18.91Q106-143.81 106-170Zm224.54-324h298.92l-42.15-116H372.69l-42.15 116Zm63-168h172.92l-33.15-92H426.69l-33.15 92ZM158-158h212v-128q0-26.19 18.91-45.09Q407.81-350 434-350h92q26.19 0 45.09 18.91Q590-312.19 590-286v128h212v-212h-81.69q-19.51 0-35.64-11.13t-23.13-29.64L650-439.69 309.69-442l-11.23 31.23q-7 18.51-23.13 29.64Q259.2-370 239.69-370H158v212Zm322-281.69Z"/></svg>
